src/icons/outline/communication/chat-bubble-check.svg

<svg width="24" height="24" viewBox="0 0 24 24" fill="none" xmlns="http://www.w3.org/2000/svg">
<g clip-path="url(#clip0_5804_987)">
<path d="M2.57636 2.57636C2.7053 2.44743 2.88016 2.375 3.0625 2.375H20.9375C21.1198 2.375 21.2947 2.44743 21.4236 2.57636C21.5526 2.7053 21.625 2.88016 21.625 3.0625V9.9375C21.625 10.3172 21.9328 10.625 22.3125 10.625C22.6922 10.625 23 10.3172 23 9.9375V3.0625C23 2.51549 22.7827 1.99089 22.3959 1.60409C22.0091 1.2173 21.4845 1 20.9375 1H3.0625C2.51549 1 1.99089 1.2173 1.60409 1.60409C1.2173 1.99089 1 2.51549 1 3.0625V16.8125C1 17.3595 1.2173 17.8841 1.60409 18.2709C1.99089 18.6577 2.51549 18.875 3.0625 18.875H3.75V22.3125C3.75 22.5728 3.89703 22.8108 4.12983 22.9273C4.36263 23.0438 4.64126 23.0188 4.84963 22.8628L8.94988 19.7919C9.25379 19.5643 9.31564 19.1334 9.08803 18.8295C8.86042 18.5256 8.42954 18.4638 8.12562 18.6914L5.125 20.9387V18.1875C5.125 17.8078 4.8172 17.5 4.4375 17.5H3.0625C2.88016 17.5 2.7053 17.4276 2.57636 17.2986C2.44743 17.1697 2.375 16.9948 2.375 16.8125V3.0625C2.375 2.88016 2.44743 2.7053 2.57636 2.57636Z" fill="#3C3B44"/>
<path d="M16.8116 12C15.8598 12 14.9293 12.2822 14.1379 12.8111C13.3465 13.3399 12.7297 14.0915 12.3654 14.9708C12.0012 15.8502 11.9059 16.8178 12.0916 17.7514C12.2773 18.6849 12.7356 19.5424 13.4087 20.2154C14.0817 20.8885 14.9392 21.3468 15.8727 21.5325C16.8063 21.7182 17.7739 21.6229 18.6533 21.2587C19.5326 20.8944 20.2843 20.2776 20.8131 19.4862C21.3419 18.6948 21.6241 17.7643 21.6241 16.8125C21.6241 16.4328 21.9319 16.125 22.3116 16.125C22.6913 16.125 22.9991 16.4328 22.9991 16.8125C22.9991 18.0363 22.6362 19.2326 21.9563 20.2501C21.2764 21.2676 20.3101 22.0607 19.1795 22.529C18.0488 22.9973 16.8047 23.1199 15.6045 22.8811C14.4042 22.6424 13.3017 22.0531 12.4364 21.1877C11.571 20.3224 10.9817 19.2199 10.743 18.0196C10.5043 16.8194 10.6268 15.5753 11.0951 14.4446C11.5634 13.314 12.3565 12.3477 13.374 11.6678C14.3915 10.9879 15.5878 10.625 16.8116 10.625C17.1913 10.625 17.4991 10.9328 17.4991 11.3125C17.4991 11.6922 17.1913 12 16.8116 12Z" fill="#3C3B44"/>
<path d="M22.7977 13.1737C23.0662 12.9052 23.0662 12.4699 22.7978 12.2014C22.5293 11.9329 22.094 11.9329 21.8255 12.2013L16.8111 17.2148L15.2363 15.639C14.9679 15.3704 14.5326 15.3703 14.264 15.6387C13.9954 15.9071 13.9953 16.3424 14.2637 16.611L15.8386 18.1867C15.9662 18.3145 16.1179 18.4159 16.2847 18.485C16.4516 18.5542 16.6305 18.5898 16.8111 18.5898C16.9918 18.5898 17.1706 18.5542 17.3375 18.485C17.5043 18.4159 17.6561 18.3144 17.7837 18.1867L22.7977 13.1737Z" fill="#3C3B44"/>
</g>
<defs>
<clipPath id="clip0_5804_987">
<rect width="24" height="24" fill="white"/>
</clipPath>
</defs>
</svg>

<svg xmlns="http://www.w3.org/2000/svg" width="24" height="24" fill="none" viewBox="0 0 24 24"><g fill="currentColor" clip-path="url(#a)"><path d="M2.576 2.576a.7.7 0 0 1 .486-.201h17.876a.687.687 0 0 1 .687.688v6.874a.687.687 0 1 0 1.375 0V3.064A2.06 2.06 0 0 0 20.938 1H3.063A2.063 2.063 0 0 0 1 3.063v13.75a2.063 2.063 0 0 0 2.063 2.062h.687v3.438a.688.688 0 0 0 1.1.55l4.1-3.071a.687.687 0 1 0-.824-1.1l-3.001 2.247v-2.751a.687.687 0 0 0-.687-.688H3.063a.687.687 0 0 1-.688-.687V3.063c0-.183.072-.358.201-.487"/><path d="M16.812 12a4.812 4.812 0 1 0 4.812 4.813.687.687 0 1 1 1.375 0 6.187 6.187 0 1 1-6.187-6.188.687.687 0 1 1 0 1.375"/><path d="M22.798 13.174a.688.688 0 0 0-.972-.973l-5.015 5.014-1.575-1.576a.688.688 0 1 0-.972.972l1.575 1.576a1.373 1.373 0 0 0 1.945 0z"/></g><defs><clipPath id="a"><path fill="currentColor" d="M0 0h24v24H0z"/></clipPath></defs></svg>
